; generated by PrusaSlicer 2.1.1+win64 on 2020-01-04 at 17:40:54 UTC

; 

; external perimeters extrusion width = 0.45mm
; perimeters extrusion width = 0.45mm
; infill extrusion width = 0.45mm
; solid infill extrusion width = 0.45mm
; top infill extrusion width = 0.40mm
; first layer extrusion width = 0.42mm

M73 P0 R33
M73 Q0 S34
M201 X1000 Y1000 Z1000 E5000 ; sets maximum accelerations, mm/sec^2
M203 X200 Y200 Z12 E120 ; sets maximum feedrates, mm/sec
M204 P1250 R1250 T1250 ; sets acceleration (P, T) and retract acceleration (R), mm/sec^2
M205 X8.00 Y8.00 Z0.40 E1.50 ; sets the jerk limits, mm/sec
M205 S0 T0 ; sets the minimum extruding and travel feed rate, mm/sec
M107
M115 U3.7.1 ; tell printer latest fw version
G90 ; use absolute coordinates
M83 ; extruder relative mode
M104 S215 ; set extruder temp
M140 S60 ; set bed temp
M190 S60 ; wait for bed temp
M109 S215 ; wait for extruder temp
G28 W ; home all without mesh bed level
G80 ; mesh bed leveling
G1 Y-3.0 F1000.0 ; go outside print area
G92 E0.0
G1 X60.0 E9.0 F1000.0 ; intro line
M73 Q0 S34
M73 P0 R33
G1 X100.0 E12.5 F1000.0 ; intro line
G92 E0.0
M221 S95
G21 ; set units to millimeters
G90 ; use absolute coordinates
M83 ; use relative distances for extrusion
M900 K30 ; Filament gcode
;BEFORE_LAYER_CHANGE
G92 E0.0
;0.2


G1 E-0.80000 F2100.00000
G1 Z0.600 F10800.000
;AFTER_LAYER_CHANGE
;0.2
G1 X248.767 Y47.151
G1 Z0.200
G1 E0.80000 F2100.00000
M204 S1000
G1 F1200
G1 X248.938 Y47.983 E0.02664
G1 X248.938 Y162.022 E3.57561
G1 X248.848 Y162.624 E0.01908
G1 X248.595 Y163.177 E0.01908
G1 X248.200 Y163.639 E0.01908
G1 X247.693 Y163.975 E0.01908
G1 X247.234 Y164.134 E0.01521
G1 X246.752 Y164.189 E0.01521
G1 X3.743 Y164.189 E7.61939
G1 X3.137 Y164.101 E0.01919
G1 X2.579 Y163.849 E0.01919
G1 X2.113 Y163.453 E0.01919
G1 X1.775 Y162.943 E0.01919
G1 X1.617 Y162.488 E0.01510
G1 X1.561 Y162.010 E0.01510
G1 X1.565 Y105.386 E1.77540
G1 X7.176 Y47.748 E1.81574
G1 X7.308 Y47.213 E0.01726
G1 X7.569 Y46.729 E0.01726
G1 X7.942 Y46.324 E0.01726
G1 X8.405 Y46.026 E0.01726
G1 X8.866 Y45.866 E0.01532
G1 X9.350 Y45.811 E0.01526
G1 X246.754 Y45.811 E7.44362
G1 X247.587 Y45.978 E0.02664
G1 X248.292 Y46.447 E0.02653
G1 X248.734 Y47.101 E0.02476
G1 F8640
G1 X248.938 Y47.983 E-0.20910
G1 X248.938 Y50.369 E-0.55090
G1 E-0.04000 F2100.00000
G1 Z0.800 F10800.000
G1 X242.038 Y156.464
G1 Z0.200
G1 E0.80000 F2100.00000
G1 F1200
G1 X242.530 Y156.511 E0.01548
G1 X242.992 Y156.651 E0.01514
G1 X243.417 Y156.879 E0.01513
G1 X243.790 Y157.185 E0.01513
G1 X244.096 Y157.558 E0.01513
G1 X244.324 Y157.983 E0.01513
G1 X244.464 Y158.445 E0.01513
G1 X244.511 Y158.925 E0.01513
G1 X244.464 Y159.405 E0.01513
G1 X244.324 Y159.867 E0.01513
G1 X244.096 Y160.292 E0.01513
G1 X243.790 Y160.665 E0.01513
G1 X243.417 Y160.971 E0.01513
G1 X242.992 Y161.199 E0.01513
G1 X242.530 Y161.339 E0.01513
G1 X242.050 Y161.386 E0.01513
G1 X241.570 Y161.339 E0.01513
G1 X241.108 Y161.199 E0.01512
G1 X240.683 Y160.971 E0.01513
G1 X240.310 Y160.665 E0.01513
G1 X240.004 Y160.292 E0.01513
G1 X239.776 Y159.867 E0.01513
G1 X239.636 Y159.405 E0.01513
G1 X239.589 Y158.925 E0.01513
G1 X239.636 Y158.445 E0.01513
G1 X239.776 Y157.983 E0.01513
G1 X240.004 Y157.558 E0.01513
G1 X240.310 Y157.185 E0.01513
G1 X240.683 Y156.879 E0.01513
G1 X241.108 Y156.651 E0.01513
G1 X241.570 Y156.511 E0.01512
G1 X241.979 Y156.470 E0.01289
G1 X242.238 Y156.117 F10800.000
G1 F8640
G1 X242.530 Y156.511 E-0.12760
G1 X242.992 Y156.651 E-0.11146
G1 X243.417 Y156.879 E-0.11139
G1 X243.790 Y157.185 E-0.11140
G1 X244.096 Y157.558 E-0.11143
G1 X244.324 Y157.983 E-0.11141
G1 X244.419 Y158.295 E-0.07532
G1 E-0.04000 F2100.00000
G1 Z0.800 F10800.000
G1 X244.365 Y156.697
G1 Z0.200
G1 E0.80000 F2100.00000
G1 F1200
G1 X245.386 Y156.720 E0.03200
G1 X245.386 Y161.036 E0.13532
G1 X244.462 Y161.036 E0.02898
G1 X244.726 Y160.713 E0.01308
G1 X245.024 Y160.157 E0.01979
G1 X245.207 Y159.553 E0.01979
G1 X245.269 Y158.925 E0.01978
G1 X245.207 Y158.297 E0.01978
G1 X245.024 Y157.693 E0.01979
G1 X244.726 Y157.137 E0.01979
G1 X244.404 Y156.743 E0.01595
G1 F8640
G1 X245.386 Y156.720 E-0.22686
G1 X245.386 Y159.029 E-0.53314
G1 E-0.04000 F2100.00000
G1 Z0.800 F10800.000
G1 X243.137 Y156.301
G1 Z0.200
G1 E0.80000 F2100.00000
G1 F1200
G1 X242.964 Y156.249 E0.00566
G1 X243.731 Y156.305 E0.02409
G1 X245.763 Y156.351 E0.06374
G1 X245.763 Y161.413 E0.15870
G1 X243.391 Y161.413 E0.07437
G1 X243.628 Y161.286 E0.00842
G1 X244.058 Y160.933 E0.01745
G1 X244.411 Y160.503 E0.01746
G1 X244.674 Y160.012 E0.01746
G1 X244.836 Y159.479 E0.01746
G1 X244.890 Y158.925 E0.01745
G1 X244.836 Y158.371 E0.01745
G1 X244.674 Y157.838 E0.01746
G1 X244.411 Y157.347 E0.01746
G1 X244.058 Y156.917 E0.01746
G1 X243.628 Y156.564 E0.01745
G1 X243.190 Y156.330 E0.01557
G1 F8640
G1 X242.964 Y156.249 E-0.05531
G1 X243.731 Y156.305 E-0.17744
G1 X245.763 Y156.351 E-0.46938
G1 X245.763 Y156.602 E-0.05786
G1 E-0.04000 F2100.00000
G1 Z0.800 F10800.000
G1 X244.365 Y53.303
G1 Z0.200
G1 E0.80000 F2100.00000
G1 F1200
G1 X244.726 Y52.863 E0.01783
G1 X245.024 Y52.307 E0.01979
G1 X245.207 Y51.703 E0.01979
G1 X245.269 Y51.075 E0.01978
G1 X245.207 Y50.447 E0.01978
G1 X245.024 Y49.843 E0.01979
G1 X244.726 Y49.287 E0.01979
G1 X244.462 Y48.964 E0.01308
G1 X245.386 Y48.964 E0.02898
G1 X245.386 Y53.280 E0.13532
G1 X244.425 Y53.302 E0.03012
G1 F8640
G1 X244.726 Y52.863 E-0.12275
G1 X245.024 Y52.307 E-0.14574
G1 X245.207 Y51.703 E-0.14576
G1 X245.269 Y51.075 E-0.14564
G1 X245.207 Y50.447 E-0.14564
G1 X245.139 Y50.222 E-0.05446
G1 E-0.04000 F2100.00000
G1 Z0.800 F10800.000
G1 X245.763 Y53.649
G1 Z0.200
G1 E0.80000 F2100.00000
G1 F1200
G1 X243.731 Y53.695 E0.06374
G1 X242.964 Y53.751 E0.02409
G1 X243.137 Y53.699 E0.00566
G1 X243.628 Y53.436 E0.01745
G1 X244.058 Y53.083 E0.01745
G1 X244.411 Y52.653 E0.01746
G1 X244.674 Y52.162 E0.01746
G1 X244.836 Y51.629 E0.01746
G1 X244.890 Y51.075 E0.01745
G1 X244.836 Y50.521 E0.01745
G1 X244.674 Y49.988 E0.01746
G1 X244.411 Y49.497 E0.01746
G1 X244.058 Y49.067 E0.01746
G1 X243.628 Y48.714 E0.01745
G1 X243.391 Y48.587 E0.00842
G1 X245.763 Y48.587 E0.07438
G1 X245.763 Y53.589 E0.15682
G1 F8640
G1 X243.731 Y53.695 E-0.46991
G1 X242.964 Y53.751 E-0.17744
G1 X243.137 Y53.699 E-0.04166
G1 X243.408 Y53.554 E-0.07099
G1 E-0.04000 F2100.00000
G1 Z0.800 F10800.000
G1 X244.096 Y52.442
G1 Z0.200
G1 E0.80000 F2100.00000
G1 F1200
G1 X243.790 Y52.815 E0.01513
G1 X243.417 Y53.121 E0.01513
G1 X242.992 Y53.349 E0.01513
G1 X242.530 Y53.489 E0.01513
G1 X242.050 Y53.536 E0.01513
G1 X241.570 Y53.489 E0.01513
G1 X241.108 Y53.349 E0.01512
G1 X240.683 Y53.121 E0.01513
G1 X240.310 Y52.815 E0.01513
G1 X240.004 Y52.442 E0.01513
G1 X239.776 Y52.017 E0.01513
G1 X239.636 Y51.555 E0.01513
G1 X239.589 Y51.075 E0.01513
G1 X239.636 Y50.595 E0.01513
G1 X239.776 Y50.133 E0.01513
G1 X240.004 Y49.708 E0.01513
G1 X240.310 Y49.335 E0.01513
G1 X240.683 Y49.029 E0.01513
G1 X241.108 Y48.801 E0.01513
G1 X241.570 Y48.661 E0.01512
G1 X242.038 Y48.614 E0.01477
G1 X242.530 Y48.661 E0.01548
G1 X242.992 Y48.801 E0.01514
G1 X243.417 Y49.029 E0.01513
G1 X243.790 Y49.335 E0.01513
G1 X244.096 Y49.708 E0.01513
G1 X244.324 Y50.133 E0.01513
G1 X244.464 Y50.595 E0.01513
G1 X244.511 Y51.075 E0.01513
G1 X244.464 Y51.555 E0.01513
G1 X244.324 Y52.017 E0.01513
G1 X244.125 Y52.389 E0.01325
G1 X244.273 Y52.801 F10800.000
G1 F8640
G1 X243.790 Y52.815 E-0.12505
G1 X243.417 Y53.121 E-0.11140
G1 X242.992 Y53.349 E-0.11139
G1 X242.530 Y53.489 E-0.11139
G1 X242.050 Y53.536 E-0.11141
G1 X241.570 Y53.489 E-0.11141
G1 X241.247 Y53.391 E-0.07796
G1 E-0.04000 F2100.00000
G1 Z0.800 F10800.000
G1 X17.219 Y54.000
G1 Z0.200
G1 E0.80000 F2100.00000
G1 F1200
G1 X17.157 Y54.628 E0.01978
G1 X16.974 Y55.232 E0.01979
G1 X16.676 Y55.788 E0.01979
G1 X16.276 Y56.276 E0.01979
G1 X15.788 Y56.676 E0.01978
G1 X15.232 Y56.974 E0.01978
G1 X14.628 Y57.157 E0.01978
G1 X14.000 Y57.219 E0.01979
G1 X13.372 Y57.157 E0.01979
G1 X12.768 Y56.974 E0.01978
G1 X12.212 Y56.676 E0.01978
G1 X11.724 Y56.276 E0.01978
G1 X11.324 Y55.788 E0.01979
G1 X11.026 Y55.232 E0.01979
G1 X10.843 Y54.628 E0.01979
G1 X10.781 Y54.000 E0.01978
G1 X10.843 Y53.372 E0.01978
G1 X11.026 Y52.768 E0.01979
G1 X11.324 Y52.212 E0.01979
G1 X11.724 Y51.724 E0.01979
G1 X12.212 Y51.324 E0.01978
G1 X12.768 Y51.026 E0.01978
G1 X13.371 Y50.843 E0.01975
G1 X13.987 Y50.782 E0.01940
G1 X14.627 Y50.843 E0.02016
G1 X15.232 Y51.026 E0.01983
G1 X15.788 Y51.324 E0.01978
G1 X16.276 Y51.724 E0.01978
G1 X16.676 Y52.212 E0.01979
G1 X16.974 Y52.768 E0.01979
G1 X17.157 Y53.372 E0.01979
G1 X17.213 Y53.940 E0.01790
G1 X16.838 Y53.977 F10800.000
G1 F1200
G1 X16.786 Y54.554 E0.01816
G1 X16.624 Y55.087 E0.01746
G1 X16.361 Y55.578 E0.01746
G1 X16.008 Y56.008 E0.01746
G1 X15.578 Y56.361 E0.01745
G1 X15.087 Y56.624 E0.01745
G1 X14.554 Y56.785 E0.01745
G1 X14.000 Y56.840 E0.01746
G1 X13.446 Y56.785 E0.01746
G1 X12.913 Y56.624 E0.01745
G1 X12.422 Y56.361 E0.01745
G1 X11.992 Y56.008 E0.01745
G1 X11.639 Y55.578 E0.01746
G1 X11.376 Y55.087 E0.01746
G1 X11.214 Y54.554 E0.01746
G1 X11.160 Y54.000 E0.01745
G1 X11.214 Y53.446 E0.01745
G1 X11.376 Y52.913 E0.01746
G1 X11.639 Y52.422 E0.01746
G1 X11.992 Y51.992 E0.01746
G1 X12.422 Y51.639 E0.01745
G1 X12.913 Y51.376 E0.01745
G1 X13.445 Y51.215 E0.01744
G1 X13.988 Y51.160 E0.01709
G1 X14.553 Y51.214 E0.01782
G1 X15.087 Y51.376 E0.01748
G1 X15.578 Y51.639 E0.01745
G1 X16.008 Y51.992 E0.01745
G1 X16.361 Y52.422 E0.01746
G1 X16.624 Y52.913 E0.01746
G1 X16.786 Y53.446 E0.01746
G1 X16.832 Y53.917 E0.01485
G1 X16.457 Y53.954 F10800.000
G1 F1200
G1 X16.414 Y54.480 E0.01655
G1 X16.274 Y54.942 E0.01513
G1 X16.046 Y55.367 E0.01513
G1 X15.740 Y55.740 E0.01513
G1 X15.367 Y56.046 E0.01513
G1 X14.942 Y56.274 E0.01513
G1 X14.480 Y56.414 E0.01512
G1 X14.000 Y56.461 E0.01513
G1 X13.520 Y56.414 E0.01513
G1 X13.058 Y56.274 E0.01512
G1 X12.633 Y56.046 E0.01513
G1 X12.260 Y55.740 E0.01513
G1 X11.954 Y55.367 E0.01513
G1 X11.726 Y54.942 E0.01513
G1 X11.586 Y54.480 E0.01513
G1 X11.539 Y54.000 E0.01513
G1 X11.586 Y53.520 E0.01513
G1 X11.726 Y53.058 E0.01513
G1 X11.954 Y52.633 E0.01513
G1 X12.260 Y52.260 E0.01513
G1 X12.633 Y51.954 E0.01513
G1 X13.058 Y51.726 E0.01513
G1 X13.520 Y51.586 E0.01512
G1 X13.988 Y51.539 E0.01477
G1 X14.480 Y51.586 E0.01548
G1 X14.942 Y51.726 E0.01513
G1 X15.367 Y51.954 E0.01513
G1 X15.740 Y52.260 E0.01513
G1 X16.046 Y52.633 E0.01513
G1 X16.274 Y53.058 E0.01513
G1 X16.414 Y53.520 E0.01513
G1 X16.451 Y53.894 E0.01180
G1 X16.806 Y54.149 F10800.000
G1 F8640
G1 X16.414 Y54.480 E-0.13551
G1 X16.274 Y54.942 E-0.11139
G1 X16.046 Y55.367 E-0.11141
G1 X15.740 Y55.740 E-0.11143
G1 X15.367 Y56.046 E-0.11140
G1 X14.942 Y56.274 E-0.11139
G1 X14.662 Y56.359 E-0.06746
G1 E-0.04000 F2100.00000
G1 Z0.800 F10800.000
G1 X13.985 Y152.024
G1 Z0.200
G1 E0.80000 F2100.00000
G1 F1200
G1 X14.773 Y152.099 E0.02484
G1 X15.522 Y152.326 E0.02452
G1 X16.209 Y152.694 E0.02443
G1 X16.812 Y153.188 E0.02444
G1 X17.306 Y153.790 E0.02445
G1 X17.674 Y154.478 E0.02445
G1 X17.901 Y155.225 E0.02446
G1 X17.977 Y156.000 E0.02443
G1 X17.901 Y156.775 E0.02443
G1 X17.674 Y157.522 E0.02446
G1 X17.306 Y158.210 E0.02445
G1 X16.812 Y158.812 E0.02445
G1 X16.209 Y159.307 E0.02444
G1 X15.522 Y159.674 E0.02444
G1 X14.776 Y159.900 E0.02444
G1 X14.000 Y159.977 E0.02445
G1 X13.224 Y159.900 E0.02445
G1 X12.478 Y159.674 E0.02444
G1 X11.791 Y159.307 E0.02444
G1 X11.188 Y158.812 E0.02444
G1 X10.694 Y158.210 E0.02445
G1 X10.326 Y157.522 E0.02445
G1 X10.099 Y156.775 E0.02446
G1 X10.023 Y156.000 E0.02443
G1 X10.099 Y155.225 E0.02443
G1 X10.326 Y154.478 E0.02446
G1 X10.694 Y153.790 E0.02445
G1 X11.188 Y153.188 E0.02445
G1 X11.791 Y152.694 E0.02444
G1 X12.478 Y152.326 E0.02443
G1 X13.223 Y152.100 E0.02439
G1 X13.925 Y152.030 E0.02214
G1 X13.963 Y152.405 F10800.000
G1 F1200
G1 X14.700 Y152.471 E0.02321
G1 X15.377 Y152.676 E0.02218
G1 X15.999 Y153.009 E0.02211
G1 X16.544 Y153.456 E0.02211
G1 X16.991 Y154.001 E0.02212
G1 X17.324 Y154.623 E0.02212
G1 X17.529 Y155.298 E0.02213
G1 X17.598 Y156.000 E0.02210
G1 X17.529 Y156.702 E0.02210
G1 X17.324 Y157.377 E0.02213
G1 X16.991 Y157.999 E0.02212
G1 X16.544 Y158.544 E0.02212
G1 X15.999 Y158.991 E0.02211
G1 X15.377 Y159.324 E0.02211
G1 X14.702 Y159.529 E0.02211
G1 X14.000 Y159.598 E0.02212
G1 X13.298 Y159.529 E0.02212
G1 X12.623 Y159.324 E0.02211
G1 X12.001 Y158.991 E0.02211
G1 X11.456 Y158.544 E0.02211
G1 X11.009 Y157.999 E0.02212
G1 X10.676 Y157.377 E0.02212
G1 X10.471 Y156.702 E0.02213
G1 X10.402 Y156.000 E0.02210
G1 X10.471 Y155.298 E0.02210
G1 X10.676 Y154.623 E0.02213
G1 X11.009 Y154.001 E0.02212
G1 X11.456 Y153.456 E0.02212
G1 X12.001 Y153.009 E0.02211
G1 X12.623 Y152.676 E0.02211
G1 X13.297 Y152.472 E0.02207
G1 X13.903 Y152.411 E0.01910
G1 X13.941 Y152.786 F10800.000
G1 F1200
G1 X14.627 Y152.843 E0.02158
G1 X15.232 Y153.026 E0.01983
G1 X15.788 Y153.324 E0.01978
G1 X16.276 Y153.724 E0.01978
G1 X16.676 Y154.212 E0.01979
G1 X16.974 Y154.768 E0.01979
G1 X17.157 Y155.372 E0.01979
G1 X17.219 Y156.000 E0.01978
G1 X17.157 Y156.628 E0.01978
G1 X16.974 Y157.232 E0.01979
G1 X16.676 Y157.788 E0.01979
G1 X16.276 Y158.276 E0.01979
G1 X15.788 Y158.676 E0.01978
G1 X15.232 Y158.974 E0.01978
G1 X14.628 Y159.157 E0.01978
G1 X14.000 Y159.219 E0.01979
G1 X13.372 Y159.157 E0.01979
G1 X12.768 Y158.974 E0.01978
G1 X12.212 Y158.676 E0.01978
G1 X11.724 Y158.276 E0.01978
G1 X11.324 Y157.788 E0.01979
G1 X11.026 Y157.232 E0.01979
G1 X10.843 Y156.628 E0.01979
G1 X10.781 Y156.000 E0.01978
G1 X10.843 Y155.372 E0.01978
G1 X11.026 Y154.768 E0.01979
G1 X11.324 Y154.212 E0.01979
G1 X11.724 Y153.724 E0.01979
G1 X12.212 Y153.324 E0.01978
G1 X12.768 Y153.026 E0.01978
G1 X13.371 Y152.843 E0.01975
G1 X13.881 Y152.792 E0.01607
G1 X13.988 Y153.160 F10800.000
G1 F1200
G1 X14.553 Y153.214 E0.01782
G1 X15.087 Y153.376 E0.01748
G1 X15.578 Y153.639 E0.01745
G1 X16.008 Y153.992 E0.01745
G1 X16.361 Y154.422 E0.01746
G1 X16.624 Y154.913 E0.01746
G1 X16.786 Y155.446 E0.01746
G1 X16.840 Y156.000 E0.01745
G1 X16.786 Y156.554 E0.01745
G1 X16.624 Y157.087 E0.01746
G1 X16.361 Y157.578 E0.01746
G1 X16.008 Y158.008 E0.01746
M73 Q3 S33
G1 X15.578 Y158.361 E0.01745
G1 X15.087 Y158.624 E0.01745
G1 X14.554 Y158.785 E0.01745
G1 X14.000 Y158.840 E0.01746
G1 X13.446 Y158.785 E0.01746
G1 X12.913 Y158.624 E0.01745
G1 X12.422 Y158.361 E0.01745
G1 X11.992 Y158.008 E0.01745
G1 X11.639 Y157.578 E0.01746
G1 X11.376 Y157.087 E0.01746
G1 X11.214 Y156.554 E0.01746
G1 X11.160 Y156.000 E0.01745
G1 X11.214 Y155.446 E0.01745
G1 X11.376 Y154.913 E0.01746
G1 X11.639 Y154.422 E0.01746
G1 X11.992 Y153.992 E0.01746
G1 X12.422 Y153.639 E0.01745
G1 X12.913 Y153.376 E0.01745
G1 X13.445 Y153.215 E0.01744
G1 X13.928 Y153.166 E0.01520
G1 X13.965 Y153.542 F10800.000
G1 F1200
G1 X14.480 Y153.586 E0.01619
G1 X14.942 Y153.726 E0.01513
G1 X15.367 Y153.954 E0.01513
G1 X15.740 Y154.260 E0.01513
G1 X16.046 Y154.633 E0.01513
G1 X16.274 Y155.058 E0.01513
G1 X16.414 Y155.520 E0.01513
G1 X16.461 Y156.000 E0.01513
G1 X16.414 Y156.480 E0.01513
G1 X16.274 Y156.942 E0.01513
G1 X16.046 Y157.367 E0.01513
G1 X15.740 Y157.740 E0.01513
G1 X15.367 Y158.046 E0.01513
G1 X14.942 Y158.274 E0.01513
G1 X14.480 Y158.414 E0.01512
G1 X14.000 Y158.461 E0.01513
G1 X13.520 Y158.414 E0.01513
G1 X13.058 Y158.274 E0.01512
G1 X12.633 Y158.046 E0.01513
G1 X12.260 Y157.740 E0.01513
G1 X11.954 Y157.367 E0.01513
G1 X11.726 Y156.942 E0.01513
G1 X11.586 Y156.480 E0.01513
G1 X11.539 Y156.000 E0.01513
G1 X11.586 Y155.520 E0.01513
G1 X11.726 Y155.058 E0.01513
G1 X11.954 Y154.633 E0.01513
G1 X12.260 Y154.260 E0.01513
G1 X12.633 Y153.954 E0.01513
G1 X13.058 Y153.726 E0.01513
G1 X13.520 Y153.586 E0.01512
G1 X13.906 Y153.548 E0.01217
G1 X14.162 Y153.193 F10800.000
G1 F8640
G1 X14.480 Y153.586 E-0.13286
G1 X14.942 Y153.726 E-0.11146
G1 X15.367 Y153.954 E-0.11139
G1 X15.740 Y154.260 E-0.11140
G1 X16.046 Y154.633 E-0.11143
G1 X16.274 Y155.058 E-0.11141
G1 X16.362 Y155.349 E-0.07006
G1 E-0.04000 F2100.00000
G1 Z0.800 F10800.000
G1 X11.068 Y106.828
G1 Z0.200
G1 E0.80000 F2100.00000
G1 F1200
G1 X11.068 Y56.666 E1.57280
M73 P3 R32
G1 X11.188 Y56.812 E0.00593
G1 X11.791 Y57.307 E0.02444
