; generated by PrusaSlicer 2.1.1+win64 on 2020-01-04 at 17:39:51 UTC

; 

; external perimeters extrusion width = 0.45mm
; perimeters extrusion width = 0.45mm
; infill extrusion width = 0.45mm
; solid infill extrusion width = 0.45mm
; top infill extrusion width = 0.40mm
; first layer extrusion width = 0.42mm

M73 P0 R227
M73 Q0 S227
M201 X1000 Y1000 Z1000 E5000 ; sets maximum accelerations, mm/sec^2
M203 X200 Y200 Z12 E120 ; sets maximum feedrates, mm/sec
M204 P1250 R1250 T1250 ; sets acceleration (P, T) and retract acceleration (R), mm/sec^2
M205 X8.00 Y8.00 Z0.40 E1.50 ; sets the jerk limits, mm/sec
M205 S0 T0 ; sets the minimum extruding and travel feed rate, mm/sec
M107
M862.3 P "MK3S" ; printer model check
M862.1 P0.4 ; nozzle diameter check
M115 U3.8.1 ; tell printer latest fw version
G90 ; use absolute coordinates
M83 ; extruder relative mode
M104 S215 ; set extruder temp
M140 S60 ; set bed temp
M190 S60 ; wait for bed temp
M109 S215 ; wait for extruder temp
G28 W ; home all without mesh bed level
G80 ; mesh bed leveling
G1 Y-3.0 F1000.0 ; go outside print area
G92 E0.0
G1 X60.0 E9.0 F1000.0 ; intro line
M73 Q0 S227
M73 P0 R227
G1 X100.0 E12.5 F1000.0 ; intro line
G92 E0.0
M221 S95
G21 ; set units to millimeters
G90 ; use absolute coordinates
M83 ; use relative distances for extrusion
M900 K30 ; Filament gcode
;BEFORE_LAYER_CHANGE
G92 E0.0
;0.2


G1 E-0.80000 F2100.00000
G1 Z0.600 F10800.000
;AFTER_LAYER_CHANGE
;0.2
G1 X6.939 Y21.914
G1 Z0.200
G1 E0.80000 F2100.00000
M204 S1000
G1 F1200
G1 X7.598 Y21.811 E0.02089
G1 X242.404 Y21.811 E7.36217
G1 X243.237 Y21.978 E0.02664
G1 X243.942 Y22.447 E0.02653
G1 X244.417 Y23.151 E0.02664
G1 X244.588 Y23.983 E0.02664
G1 X244.589 Y186.011 E5.08027
G1 X244.524 Y186.528 E0.01635
G1 X244.339 Y187.016 E0.01635
G1 X244.043 Y187.445 E0.01635
G1 X243.655 Y187.793 E0.01635
G1 X243.061 Y188.086 E0.02078
G1 X242.402 Y188.189 E0.02089
G1 X7.596 Y188.189 E7.36217
G1 X7.079 Y188.126 E0.01635
G1 X6.588 Y187.940 E0.01646
G1 X6.155 Y187.643 E0.01646
G1 X5.807 Y187.255 E0.01635
G1 X5.514 Y186.661 E0.02078
G1 X5.411 Y186.006 E0.02078
G1 X5.411 Y23.993 E5.07981
G1 X5.475 Y23.475 E0.01635
G1 X5.660 Y22.988 E0.01635
G1 X5.957 Y22.555 E0.01646
G1 X6.345 Y22.207 E0.01635
G1 X6.886 Y21.940 E0.01889
G1 F8640
G1 X7.598 Y21.811 E-0.16710
G1 X10.166 Y21.811 E-0.59290
G1 E-0.04000 F2100.00000
G1 Z0.800 F10800.000
G1 X9.318 Y25.718
G1 Z0.200
G1 E0.80000 F2100.00000
G1 F1200
G1 X240.682 Y25.718 E7.25424
G1 X240.682 Y100.282 E2.33788
G1 X9.318 Y100.282 E7.25424
M73 Q0 S226
M73 P0 R225
G1 X9.318 Y25.778 E2.33600
G1 X8.941 Y25.341 F10800.000
G1 F1200
G1 X241.059 Y25.341 E7.27788
G1 X241.059 Y100.659 E2.36153
G1 X8.941 Y100.659 E7.27788
G1 X8.941 Y25.401 E2.35965
G1 X8.564 Y24.964 F10800.000
G1 F1200
G1 X241.436 Y24.964 E7.30153
G1 X241.436 Y101.036 E2.38517
G1 X8.564 Y101.036 E7.30153
M73 Q1 S225
M73 P1 R224
G1 X8.564 Y25.024 E2.38329
G1 X8.187 Y24.587 F10800.000
G1 F1200
G1 X241.813 Y24.587 E7.32517
G1 X241.813 Y101.413 E2.40882
G1 X8.187 Y101.413 E7.32517
G1 X8.187 Y24.647 E2.40694
G1 X7.810 Y24.210 F10800.000
G1 F1200
G1 X242.190 Y24.210 E7.34882
G1 X242.190 Y101.790 E2.43247
G1 X7.810 Y101.790 E7.34882
M73 Q1 S224
M73 P1 R223
G1 X7.810 Y24.270 E2.43059
G1 X8.208 Y24.253 F10800.000
G1 F8640
G1 X11.101 Y24.269 E-0.76000
G1 E-0.04000 F2100.00000
G1 Z0.800 F10800.000
G1 X16.150 Y29.690
G1 Z0.200
G1 E0.80000 F2100.00000
G1 F1200
G1 X15.166 Y26.016 E0.11926
G1 X9.616 Y26.016 E0.17401
G1 X9.616 Y32.364 E0.19905
G1 X12.660 Y33.180 E0.09882
G1 X16.150 Y29.690 E0.15475
G1 F8640
G1 X13.823 Y32.018 E-0.76000
G1 E-0.04000 F2100.00000
G1 Z0.800 F10800.000
G1 X28.389 Y28.966
G1 Z0.200
G1 E0.80000 F2100.00000
G1 F1200
G1 X31.338 Y26.016 E0.13079
G1 X23.595 Y26.016 E0.24280
G1 X24.014 Y27.583 E0.05086
G1 X20.525 Y31.073 E0.15475
G1 X16.438 Y29.978 E0.13264
G1 X12.948 Y33.468 E0.15475
G1 X14.043 Y37.554 E0.13264
G1 X10.553 Y41.044 E0.15475
G1 X9.616 Y40.793 E0.03042
G1 X9.616 Y47.738 E0.21776
G1 X11.936 Y45.418 E0.10287
G1 X10.841 Y41.332 E0.13264
G1 X14.331 Y37.842 E0.15475
G1 X18.417 Y38.937 E0.13264
G1 X21.907 Y35.447 E0.15475
G1 X20.812 Y31.361 E0.13264
G1 X24.302 Y27.871 E0.15475
G1 X28.389 Y28.966 E0.13264
G1 F8640
G1 X25.209 Y28.114 E-0.76000
G1 E-0.04000 F2100.00000
G1 Z0.800 F10800.000
G1 X36.541 Y27.146
G1 Z0.200
G1 E0.80000 F2100.00000
G1 F1200
G1 X37.671 Y26.016 E0.05012
G1 X37.095 Y26.016 E0.01805
G1 X36.253 Y26.859 E0.03735
G1 X33.109 Y26.016 E0.10205
G1 X31.914 Y26.016 E0.03747
G1 X28.677 Y29.254 E0.14355
G1 X29.771 Y33.340 E0.13264
G1 X26.281 Y36.830 E0.15475
G1 X22.195 Y35.735 E0.13264
G1 X18.705 Y39.225 E0.15475
G1 X19.800 Y43.311 E0.13264
G1 X16.310 Y46.801 E0.15475
G1 X12.224 Y45.706 E0.13264
G1 X9.616 Y48.314 E0.11563
G1 X9.616 Y52.489 E0.13091
G1 X9.829 Y53.283 E0.02576
G1 X9.616 Y53.495 E0.00943
G1 X9.616 Y54.071 E0.01805
G1 X10.117 Y53.570 E0.02219
G1 X14.203 Y54.665 E0.13264
G1 X17.693 Y51.175 E0.15475
G1 X16.598 Y47.089 E0.13264
G1 X20.088 Y43.599 E0.15475
G1 X24.174 Y44.694 E0.13264
G1 X27.664 Y41.204 E0.15475
G1 X26.569 Y37.118 E0.13264
G1 X30.059 Y33.628 E0.15475
G1 X34.146 Y34.723 E0.13264
G1 X37.636 Y31.233 E0.15475
G1 X36.541 Y27.146 E0.13264
G1 F8640
G1 X37.393 Y30.326 E-0.76000
G1 E-0.04000 F2100.00000
G1 Z0.800 F10800.000
G1 X53.364 Y27.018
G1 Z0.200
G1 E0.80000 F2100.00000
G1 F1200
G1 X53.095 Y26.016 E0.03253
G1 X44.667 Y26.016 E0.26428
G1 X45.500 Y29.125 E0.10093
G1 X42.010 Y32.615 E0.15475
G1 X37.923 Y31.521 E0.13264
G1 X34.433 Y35.011 E0.15475
G1 X35.528 Y39.097 E0.13264
G1 X32.038 Y42.587 E0.15475
G1 X27.952 Y41.492 E0.13264
G1 X24.462 Y44.982 E0.15475
G1 X25.557 Y49.068 E0.13264
G1 X22.067 Y52.558 E0.15475
G1 X17.981 Y51.463 E0.13264
G1 X14.491 Y54.953 E0.15475
G1 X15.586 Y59.040 E0.13264
G1 X12.096 Y62.530 E0.15475
G1 X9.616 Y61.865 E0.08049
G1 X9.616 Y70.294 E0.26428
G1 X9.989 Y70.394 E0.01209
G1 X13.479 Y66.904 E0.15475
G1 X12.384 Y62.817 E0.13264
G1 X15.874 Y59.327 E0.15475
G1 X19.960 Y60.422 E0.13264
G1 X23.450 Y56.932 E0.15475
G1 X22.355 Y52.846 E0.13264
G1 X25.845 Y49.356 E0.15475
G1 X29.931 Y50.451 E0.13264
G1 X33.421 Y46.961 E0.15475
G1 X32.326 Y42.875 E0.13264
G1 X35.816 Y39.385 E0.15475
G1 X39.903 Y40.480 E0.13264
G1 X43.393 Y36.990 E0.15475
G1 X42.298 Y32.903 E0.13264
G1 X45.788 Y29.413 E0.15475
G1 X49.874 Y30.508 E0.13264
G1 X53.364 Y27.018 E0.15475
G1 F8640
G1 X51.037 Y29.346 E-0.76000
G1 E-0.04000 F2100.00000
G1 Z0.800 F10800.000
G1 X58.026 Y28.689
G1 Z0.200
G1 E0.80000 F2100.00000
G1 F1200
G1 X60.699 Y26.016 E0.11852
G1 X60.123 Y26.016 E0.01805
G1 X57.738 Y28.401 E0.10575
G1 X53.652 Y27.306 E0.13264
G1 X50.162 Y30.796 E0.15475
G1 X51.257 Y34.882 E0.13264
G1 X47.767 Y38.372 E0.15475
G1 X43.680 Y37.278 E0.13264
G1 X40.190 Y40.767 E0.15475
G1 X41.285 Y44.854 E0.13264
G1 X37.795 Y48.344 E0.15475
G1 X33.709 Y47.249 E0.13264
G1 X30.219 Y50.739 E0.15475
G1 X31.314 Y54.825 E0.13264
G1 X27.824 Y58.315 E0.15475
G1 X23.738 Y57.220 E0.13264
G1 X20.248 Y60.710 E0.15475
G1 X21.343 Y64.797 E0.13264
G1 X17.853 Y68.287 E0.15475
G1 X13.766 Y67.192 E0.13264
G1 X10.276 Y70.682 E0.15475
G1 X11.371 Y74.768 E0.13264
G1 X9.616 Y76.523 E0.07783
G1 X9.616 Y77.099 E0.01805
G1 X11.659 Y75.056 E0.09059
G1 X15.746 Y76.151 E0.13264
G1 X19.235 Y72.661 E0.15475
G1 X18.141 Y68.574 E0.13264
G1 X21.631 Y65.084 E0.15475
G1 X25.717 Y66.179 E0.13264
G1 X29.207 Y62.689 E0.15475
G1 X28.112 Y58.603 E0.13264
G1 X31.602 Y55.113 E0.15475
G1 X35.688 Y56.208 E0.13264
G1 X39.178 Y52.718 E0.15475
G1 X38.083 Y48.632 E0.13264
G1 X41.573 Y45.142 E0.15475
G1 X45.660 Y46.237 E0.13264
G1 X49.150 Y42.747 E0.15475
G1 X48.055 Y38.660 E0.13264
G1 X51.545 Y35.170 E0.15475
G1 X55.631 Y36.265 E0.13264
G1 X59.121 Y32.775 E0.15475
G1 X58.026 Y28.689 E0.13264
G1 F8640
G1 X58.878 Y31.868 E-0.76000
G1 E-0.04000 F2100.00000
G1 Z0.800 F10800.000
G1 X65.602 Y26.294
G1 Z0.200
G1 E0.80000 F2100.00000
G1 F1200
G1 X65.880 Y26.016 E0.01232
G1 X64.566 Y26.016 E0.04121
G1 X65.602 Y26.294 E0.03365
G1 F8640
G1 X64.566 Y26.016 E-0.24781
G1 X65.880 Y26.016 E-0.30351
G1 X65.602 Y26.294 E-0.09071
G1 E-0.15797 F2100.00000
G1 Z0.800 F10800.000
G1 X74.849 Y28.561
G1 Z0.200
G1 E0.80000 F2100.00000
G1 F1200
G1 X74.167 Y26.016 E0.08260
G1 X66.456 Y26.016 E0.24179
G1 X65.890 Y26.582 E0.02508
G1 X66.985 Y30.668 E0.13264
G1 X63.495 Y34.158 E0.15475
G1 X59.409 Y33.063 E0.13264
G1 X55.919 Y36.553 E0.15475
G1 X57.014 Y40.639 E0.13264
G1 X53.524 Y44.129 E0.15475
G1 X49.437 Y43.034 E0.13264
G1 X45.947 Y46.524 E0.15475
G1 X47.042 Y50.611 E0.13264
G1 X43.552 Y54.101 E0.15475
G1 X39.466 Y53.006 E0.13264
G1 X35.976 Y56.496 E0.15475
G1 X37.071 Y60.582 E0.13264
G1 X33.581 Y64.072 E0.15475
G1 X29.495 Y62.977 E0.13264
G1 X26.005 Y66.467 E0.15475
G1 X27.100 Y70.554 E0.13264
G1 X23.610 Y74.043 E0.15475
G1 X19.523 Y72.949 E0.13264
G1 X16.033 Y76.439 E0.15475
G1 X17.128 Y80.525 E0.13264
G1 X13.638 Y84.015 E0.15475
G1 X9.616 Y82.937 E0.13056
G1 X9.616 Y91.366 E0.26428
G1 X11.531 Y91.879 E0.06216
G1 X15.021 Y88.389 E0.15475
G1 X13.926 Y84.303 E0.13264
G1 X17.416 Y80.813 E0.15475
G1 X21.502 Y81.908 E0.13264
G1 X24.992 Y78.418 E0.15475
G1 X23.898 Y74.331 E0.13264
G1 X27.387 Y70.841 E0.15475
G1 X31.474 Y71.936 E0.13264
G1 X34.964 Y68.446 E0.15475
G1 X33.869 Y64.360 E0.13264
G1 X37.359 Y60.870 E0.15475
G1 X41.445 Y61.965 E0.13264
G1 X44.935 Y58.475 E0.15475
G1 X43.840 Y54.389 E0.13264
G1 X47.330 Y50.899 E0.15475
G1 X51.417 Y51.994 E0.13264
G1 X54.907 Y48.504 E0.15475
G1 X53.812 Y44.417 E0.13264
G1 X57.302 Y40.927 E0.15475
G1 X61.388 Y42.022 E0.13264
G1 X64.878 Y38.532 E0.15475
G1 X63.783 Y34.446 E0.13264
G1 X67.273 Y30.956 E0.15475
G1 X71.359 Y32.051 E0.13264
G1 X74.849 Y28.561 E0.15475
G1 F8640
G1 X72.522 Y30.888 E-0.76000
G1 E-0.04000 F2100.00000
G1 Z0.800 F10800.000
G1 X87.088 Y27.836
G1 Z0.200
G1 E0.80000 F2100.00000
G1 F1200
G1 X88.908 Y26.016 E0.08072
G1 X82.596 Y26.016 E0.19790
G1 X82.713 Y26.454 E0.01420
G1 X79.223 Y29.944 E0.15475
G1 X75.137 Y28.849 E0.13264
G1 X71.647 Y32.339 E0.15475
G1 X72.742 Y36.425 E0.13264
G1 X69.252 Y39.915 E0.15475
G1 X65.166 Y38.820 E0.13264
G1 X61.676 Y42.310 E0.15475
G1 X62.771 Y46.396 E0.13264
G1 X59.281 Y49.886 E0.15475
G1 X55.194 Y48.791 E0.13264
G1 X51.704 Y52.281 E0.15475
G1 X52.799 Y56.368 E0.13264
G1 X49.309 Y59.858 E0.15475
G1 X45.223 Y58.763 E0.13264
G1 X41.733 Y62.253 E0.15475
G1 X42.828 Y66.339 E0.13264
G1 X39.338 Y69.829 E0.15475
G1 X35.252 Y68.734 E0.13264
G1 X31.762 Y72.224 E0.15475
G1 X32.857 Y76.310 E0.13264
G1 X29.367 Y79.800 E0.15475
G1 X25.280 Y78.706 E0.13264
G1 X21.790 Y82.195 E0.15475
G1 X22.885 Y86.282 E0.13264
G1 X19.395 Y89.772 E0.15475
G1 X15.309 Y88.677 E0.13264
G1 X11.819 Y92.167 E0.15475
G1 X12.914 Y96.253 E0.13264
G1 X9.616 Y99.551 E0.14623
G1 X9.616 Y99.984 E0.01357
G1 X9.759 Y99.984 E0.00448
G1 X13.202 Y96.541 E0.15266
G1 X17.288 Y97.636 E0.13264
G1 X20.778 Y94.146 E0.15475
G1 X19.683 Y90.060 E0.13264
G1 X23.173 Y86.570 E0.15475
G1 X27.259 Y87.665 E0.13264
G1 X30.749 Y84.175 E0.15475
G1 X29.654 Y80.088 E0.13264
G1 X33.144 Y76.598 E0.15475
G1 X37.231 Y77.693 E0.13264
G1 X40.721 Y74.203 E0.15475
G1 X39.626 Y70.117 E0.13264
G1 X43.116 Y66.627 E0.15475
G1 X47.202 Y67.722 E0.13264
G1 X50.692 Y64.232 E0.15475
G1 X49.597 Y60.146 E0.13264
G1 X53.087 Y56.656 E0.15475
M73 Q1 S223
M73 P1 R222
G1 X57.174 Y57.751 E0.13264
G1 X60.663 Y54.261 E0.15475
G1 X59.569 Y50.174 E0.13264
G1 X63.059 Y46.684 E0.15475
G1 X67.145 Y47.779 E0.13264
G1 X70.635 Y44.289 E0.15475
G1 X69.540 Y40.203 E0.13264
G1 X73.030 Y36.713 E0.15475
G1 X77.116 Y37.808 E0.13264
G1 X80.606 Y34.318 E0.15475
G1 X79.511 Y30.232 E0.13264
G1 X83.001 Y26.742 E0.15475
G1 X87.088 Y27.836 E0.13264
G1 F8640
G1 X83.908 Y26.985 E-0.76000
G1 E-0.04000 F2100.00000
G1 Z0.800 F10800.000
G1 X95.240 Y26.017
G1 Z0.200
G1 E0.80000 F2100.00000
G1 F1200
G1 X89.484 Y26.016 E0.18047
G1 X87.375 Y28.124 E0.09348
G1 X88.470 Y32.211 E0.13264
G1 X84.980 Y35.701 E0.15475
G1 X80.894 Y34.606 E0.13264
G1 X77.404 Y38.096 E0.15475
G1 X78.499 Y42.182 E0.13264
G1 X75.009 Y45.672 E0.15475
G1 X70.923 Y44.577 E0.13264
G1 X67.433 Y48.067 E0.15475
G1 X68.528 Y52.153 E0.13264
G1 X65.038 Y55.643 E0.15475
G1 X60.951 Y54.548 E0.13264
G1 X57.461 Y58.038 E0.15475
G1 X58.556 Y62.125 E0.13264
G1 X55.066 Y65.615 E0.15475
G1 X50.980 Y64.520 E0.13264
G1 X47.490 Y68.010 E0.15475
G1 X48.585 Y72.096 E0.13264
G1 X45.095 Y75.586 E0.15475
G1 X41.009 Y74.491 E0.13264
G1 X37.519 Y77.981 E0.15475
G1 X38.614 Y82.067 E0.13264
G1 X35.124 Y85.557 E0.15475
G1 X31.037 Y84.462 E0.13264
G1 X27.547 Y87.952 E0.15475
G1 X28.642 Y92.039 E0.13264
G1 X25.152 Y95.529 E0.15475
G1 X21.066 Y94.434 E0.13264
G1 X17.576 Y97.924 E0.15475
G1 X18.128 Y99.984 E0.06687
G1 X26.454 Y99.984 E0.26106
G1 X26.535 Y99.903 E0.00359
G1 X25.440 Y95.817 E0.13264
G1 X28.930 Y92.327 E0.15475
G1 X33.016 Y93.422 E0.13264
G1 X36.506 Y89.932 E0.15475
G1 X35.411 Y85.845 E0.13264
G1 X38.901 Y82.355 E0.15475
G1 X42.988 Y83.450 E0.13264
G1 X46.478 Y79.960 E0.15475
G1 X45.383 Y75.874 E0.13264
G1 X48.873 Y72.384 E0.15475
G1 X52.959 Y73.479 E0.13264
G1 X56.449 Y69.989 E0.15475
G1 X55.354 Y65.903 E0.13264
G1 X58.844 Y62.413 E0.15475
G1 X62.930 Y63.508 E0.13264
G1 X66.420 Y60.018 E0.15475
G1 X65.326 Y55.931 E0.13264
G1 X68.815 Y52.441 E0.15475
G1 X72.902 Y53.536 E0.13264
G1 X76.392 Y50.046 E0.15475
G1 X75.297 Y45.960 E0.13264
G1 X78.787 Y42.470 E0.15475
G1 X82.873 Y43.565 E0.13264
G1 X86.363 Y40.075 E0.15475
G1 X85.268 Y35.988 E0.13264
G1 X88.758 Y32.498 E0.15475
G1 X92.845 Y33.593 E0.13264
G1 X96.335 Y30.103 E0.15475
G1 X95.240 Y26.017 E0.13264
G1 F8640
G1 X96.091 Y29.196 E-0.76000
G1 E-0.04000 F2100.00000
G1 Z0.800 F10800.000
G1 X108.573 Y29.379
G1 Z0.200
G1 E0.80000 F2100.00000
G1 F1200
G1 X111.936 Y26.016 E0.14912
G1 X103.668 Y26.016 E0.25923
G1 X104.199 Y27.996 E0.06428
G1 X100.709 Y31.486 E0.15475
G1 X96.622 Y30.391 E0.13264
G1 X93.132 Y33.881 E0.15475
G1 X94.227 Y37.968 E0.13264
G1 X90.737 Y41.458 E0.15475
G1 X86.651 Y40.363 E0.13264
G1 X83.161 Y43.853 E0.15475
G1 X84.256 Y47.939 E0.13264
G1 X80.766 Y51.429 E0.15475
G1 X76.680 Y50.334 E0.13264
G1 X73.190 Y53.824 E0.15475
G1 X74.285 Y57.910 E0.13264
G1 X70.795 Y61.400 E0.15475
G1 X66.708 Y60.305 E0.13264
G1 X63.218 Y63.795 E0.15475
G1 X64.313 Y67.882 E0.13264
G1 X60.823 Y71.372 E0.15475
G1 X56.737 Y70.277 E0.13264
G1 X53.247 Y73.767 E0.15475
G1 X54.342 Y77.853 E0.13264
G1 X50.852 Y81.343 E0.15475
G1 X46.766 Y80.248 E0.13264
G1 X43.276 Y83.738 E0.15475
G1 X44.371 Y87.824 E0.13264
G1 X40.881 Y91.314 E0.15475
G1 X36.794 Y90.219 E0.13264
G1 X33.304 Y93.709 E0.15475
G1 X34.399 Y97.796 E0.13264
G1 X32.211 Y99.984 E0.09703
G1 X32.787 Y99.984 E0.01805
G1 X34.687 Y98.084 E0.08426
G1 X38.773 Y99.179 E0.13264
G1 X42.263 Y95.689 E0.15475
G1 X41.168 Y91.602 E0.13264
G1 X44.658 Y88.112 E0.15475
G1 X48.745 Y89.207 E0.13264
G1 X52.235 Y85.717 E0.15475
G1 X51.140 Y81.631 E0.13264
G1 X54.630 Y78.141 E0.15475
G1 X58.716 Y79.236 E0.13264
G1 X62.206 Y75.746 E0.15475
G1 X61.111 Y71.660 E0.13264
G1 X64.601 Y68.170 E0.15475
G1 X68.687 Y69.264 E0.13264
G1 X72.177 Y65.774 E0.15475
G1 X71.082 Y61.688 E0.13264
G1 X74.572 Y58.198 E0.15475
G1 X78.659 Y59.293 E0.13264
G1 X82.149 Y55.803 E0.15475
G1 X81.054 Y51.717 E0.13264
G1 X84.544 Y48.227 E0.15475
G1 X88.630 Y49.322 E0.13264
G1 X92.120 Y45.832 E0.15475
G1 X91.025 Y41.745 E0.13264
G1 X94.515 Y38.255 E0.15475
G1 X98.602 Y39.350 E0.13264
G1 X102.091 Y35.860 E0.15475
G1 X100.997 Y31.774 E0.13264
G1 X104.487 Y28.284 E0.15475
G1 X108.573 Y29.379 E0.13264
G1 F8640
G1 X105.394 Y28.527 E-0.76000
G1 E-0.04000 F2100.00000
G1 Z0.800 F10800.000
G1 X116.725 Y27.560
G1 Z0.200
G1 E0.80000 F2100.00000
G1 F1200
G1 X118.268 Y26.016 E0.06844
G1 X117.693 Y26.016 E0.01805
G1 X116.437 Y27.272 E0.05568
G1 X112.351 Y26.177 E0.13264
G1 X108.861 Y29.667 E0.15475
G1 X109.956 Y33.753 E0.13264
G1 X106.466 Y37.243 E0.15475
G1 X102.379 Y36.148 E0.13264
G1 X98.889 Y39.638 E0.15475
G1 X99.984 Y43.725 E0.13264
G1 X96.494 Y47.215 E0.15475
G1 X92.408 Y46.120 E0.13264
G1 X88.918 Y49.610 E0.15475
G1 X90.013 Y53.696 E0.13264
G1 X86.523 Y57.186 E0.15475
G1 X82.437 Y56.091 E0.13264
