; generated by PrusaSlicer 2.1.0+win64 on 2019-12-11 at 03:21:42 UTC

; 

; external perimeters extrusion width = 0.45mm
; perimeters extrusion width = 0.45mm
; infill extrusion width = 0.45mm
; solid infill extrusion width = 0.45mm
; top infill extrusion width = 0.40mm
; first layer extrusion width = 0.42mm

M73 P0 R70
M73 Q0 S71
M201 X1000 Y1000 Z1000 E5000 ; sets maximum accelerations, mm/sec^2
M203 X200 Y200 Z12 E120 ; sets maximum feedrates, mm/sec
M204 P1250 R1250 T1250 ; sets acceleration (P, T) and retract acceleration (R), mm/sec^2
M205 X8.00 Y8.00 Z0.40 E1.50 ; sets the jerk limits, mm/sec
M205 S0 T0 ; sets the minimum extruding and travel feed rate, mm/sec
M107
M115 U3.7.1 ; tell printer latest fw version
G90 ; use absolute coordinates
M83 ; extruder relative mode
M104 S215 ; set extruder temp
M140 S60 ; set bed temp
M190 S60 ; wait for bed temp
M109 S215 ; wait for extruder temp
G28 W ; home all without mesh bed level
G80 ; mesh bed leveling
G1 Y-3.0 F1000.0 ; go outside print area
G92 E0.0
G1 X60.0 E9.0 F1000.0 ; intro line
M73 Q0 S71
M73 P0 R70
G1 X100.0 E12.5 F1000.0 ; intro line
G92 E0.0
M221 S95
G21 ; set units to millimeters
G90 ; use absolute coordinates
M83 ; use relative distances for extrusion
M900 K30 ; Filament gcode
;BEFORE_LAYER_CHANGE
G92 E0.0
;0.2


G1 E-0.80000 F2100.00000
G1 Z0.600 F10800.000
;AFTER_LAYER_CHANGE
;0.2
G1 X78.755 Y69.952
G1 Z0.200
G1 E0.80000 F2100.00000
M204 S1000
G1 F1200
G1 X80.519 Y68.099 E0.08020
G1 X82.336 Y66.367 E0.07871
G1 X84.313 Y64.659 E0.08192
G1 X86.378 Y63.050 E0.08208
G1 X88.430 Y61.606 E0.07867
G1 X90.547 Y60.265 E0.07860
G1 X92.823 Y58.973 E0.08203
G1 X95.159 Y57.800 E0.08196
G1 X97.453 Y56.784 E0.07867
G1 X99.795 Y55.880 E0.07871
G1 X102.325 Y55.044 E0.08355
G1 X104.744 Y54.375 E0.07869
G1 X107.189 Y53.825 E0.07860
G1 X109.767 Y53.376 E0.08203
G1 X112.305 Y53.063 E0.08020
G1 X114.809 Y52.878 E0.07871
G1 X117.428 Y52.811 E0.08215
G1 X119.985 Y52.874 E0.08020
G1 X122.591 Y53.069 E0.08194
G1 X125.082 Y53.377 E0.07870
G1 X127.552 Y53.804 E0.07859
G1 X130.052 Y54.363 E0.08032
G1 X132.570 Y55.058 E0.08192
G1 X135.006 Y55.863 E0.08043
G1 X137.396 Y56.784 E0.08031
G1 X139.785 Y57.846 E0.08197
G1 X142.072 Y59.000 E0.08031
G1 X144.254 Y60.237 E0.07867
G1 X146.373 Y61.578 E0.07860
G1 X148.510 Y63.080 E0.08192
G1 X150.532 Y64.658 E0.08043
G1 X152.472 Y66.332 E0.08031
G1 X154.364 Y68.136 E0.08196
G1 X156.093 Y69.953 E0.07867
G1 X157.731 Y71.851 E0.07860
G1 X159.318 Y73.880 E0.08077
G1 X160.846 Y76.051 E0.08323
G1 X162.187 Y78.171 E0.07867
G1 X163.447 Y80.393 E0.08008
G1 X179.542 Y111.486 E1.09778
G1 X184.383 Y125.941 E0.47796
G1 X184.610 Y126.855 E0.02954
G1 X184.761 Y128.074 E0.03851
G1 X184.760 Y129.042 E0.03035
G1 X184.603 Y130.293 E0.03953
G1 X184.373 Y131.200 E0.02935
G1 X183.920 Y132.368 E0.03925
G1 X183.474 Y133.197 E0.02952
G1 X182.749 Y134.221 E0.03936
G1 X182.122 Y134.910 E0.02921
G1 X181.191 Y135.711 E0.03851
G1 X180.384 Y136.249 E0.03040
G1 X179.228 Y136.825 E0.04050
G1 X134.966 Y154.151 E1.49035
G1 X132.572 Y154.942 E0.07906
G1 X130.103 Y155.625 E0.08031
G1 X127.607 Y156.185 E0.08020
G1 X125.134 Y156.615 E0.07871
G1 X122.485 Y156.942 E0.08367
G1 X119.983 Y157.126 E0.07867
G1 X117.433 Y157.189 E0.07997
G1 X114.861 Y157.126 E0.08066
G1 X112.255 Y156.931 E0.08194
G1 X109.764 Y156.623 E0.07870
G1 X107.295 Y156.196 E0.07859
G1 X104.795 Y155.637 E0.08032
G1 X102.276 Y154.942 E0.08192
G1 X99.840 Y154.137 E0.08043
G1 X97.451 Y153.216 E0.08031
G1 X95.061 Y152.154 E0.08197
G1 X92.775 Y151.000 E0.08031
G1 X90.592 Y149.763 E0.07867
G1 X88.474 Y148.422 E0.07860
G1 X86.337 Y146.920 E0.08192
G1 X84.314 Y145.342 E0.08043
G1 X82.375 Y143.668 E0.08031
G1 X80.483 Y141.864 E0.08196
G1 X78.753 Y140.047 E0.07867
G1 X77.116 Y138.149 E0.07860
G1 X75.529 Y136.120 E0.08077
G1 X74.001 Y133.949 E0.08323
G1 X72.659 Y131.829 E0.07867
G1 X71.423 Y129.649 E0.07859
G1 X70.245 Y127.313 E0.08203
G1 X69.187 Y124.922 E0.08197
G1 X68.285 Y122.581 E0.07867
G1 X67.498 Y120.201 E0.07860
G1 X66.798 Y117.680 E0.08203
G1 X66.238 Y115.184 E0.08020
G1 X65.808 Y112.711 E0.07871
G1 X65.486 Y110.114 E0.08203
G1 X65.296 Y107.507 E0.08196
G1 X65.235 Y104.999 E0.07867
G1 X65.297 Y102.442 E0.08020
G1 X65.492 Y99.832 E0.08205
G1 X65.800 Y97.341 E0.07870
G1 X66.228 Y94.871 E0.07859
G1 X66.800 Y92.315 E0.08215
G1 X67.535 Y89.687 E0.08555
G1 X68.286 Y87.417 E0.07497
G1 X69.189 Y85.075 E0.07871
G1 X70.269 Y82.638 E0.08357
G1 X71.398 Y80.398 E0.07866
G1 X72.633 Y78.216 E0.07860
G1 X74.031 Y76.005 E0.08203
G1 X75.506 Y73.910 E0.08031
G1 X77.047 Y71.934 E0.07860
G1 X78.716 Y69.997 E0.08015
G1 F8640
G1 X80.519 Y68.099 E-0.60449
G1 X81.006 Y67.634 E-0.15551
G1 E-0.04000 F2100.00000
G1 Z0.800 F10800.000
G1 X123.519 Y96.431
G1 Z0.200
G1 E0.80000 F2100.00000
G1 F1200
G1 X125.574 Y96.542 E0.06453
G1 X126.897 Y96.679 E0.04169
G1 X128.211 Y96.880 E0.04168
G1 X129.514 Y97.146 E0.04169
G1 X130.802 Y97.475 E0.04168
G1 X132.072 Y97.868 E0.04169
G1 X133.322 Y98.322 E0.04169
G1 X134.547 Y98.836 E0.04169
G1 X135.746 Y99.411 E0.04169
G1 X136.916 Y100.043 E0.04169
G1 X138.053 Y100.732 E0.04169
G1 X139.155 Y101.476 E0.04169
G1 X140.219 Y102.274 E0.04169
G1 X141.242 Y103.122 E0.04169
G1 X142.223 Y104.020 E0.04168
G1 X143.158 Y104.964 E0.04169
G1 X144.046 Y105.954 E0.04169
G1 X144.885 Y106.986 E0.04169
G1 X145.672 Y108.057 E0.04169
G1 X146.405 Y109.167 E0.04169
G1 X147.083 Y110.310 E0.04169
G1 X147.704 Y111.486 E0.04169
G1 X148.266 Y112.690 E0.04168
G1 X148.769 Y113.921 E0.04169
G1 X149.211 Y115.175 E0.04169
G1 X149.590 Y116.449 E0.04169
G1 X149.907 Y117.741 E0.04168
G1 X150.160 Y119.046 E0.04169
G1 X150.349 Y120.362 E0.04169
G1 X150.472 Y121.686 E0.04169
G1 X150.531 Y123.014 E0.04169
G1 X150.525 Y124.343 E0.04169
G1 X150.453 Y125.671 E0.04169
G1 X150.316 Y126.993 E0.04168
G1 X150.114 Y128.307 E0.04169
G1 X149.849 Y129.610 E0.04168
G1 X149.519 Y130.899 E0.04170
G1 X149.116 Y132.199 E0.04270
G1 X148.673 Y133.418 E0.04066
G1 X148.158 Y134.644 E0.04168
G1 X147.584 Y135.843 E0.04169
G1 X146.951 Y137.012 E0.04169
G1 X146.262 Y138.149 E0.04169
G1 X145.518 Y139.251 E0.04169
G1 X144.721 Y140.315 E0.04169
G1 X143.873 Y141.339 E0.04168
G1 X142.975 Y142.319 E0.04169
G1 X142.030 Y143.255 E0.04169
G1 X141.632 Y143.613 E0.01680
G1 X140.860 Y144.102 E0.02865
G1 X138.913 Y145.204 E0.07016
G1 X136.914 Y146.210 E0.07016
G1 X134.869 Y147.117 E0.07016
G1 X132.781 Y147.922 E0.07016
G1 X130.709 Y148.607 E0.06841
G1 X128.500 Y149.221 E0.07189
G1 X126.317 Y149.711 E0.07017
G1 X124.167 Y150.084 E0.06841
G1 X121.892 Y150.368 E0.07189
G1 X119.660 Y150.532 E0.07017
G1 X117.423 Y150.587 E0.07016
G1 X115.186 Y150.532 E0.07016
G1 X112.955 Y150.368 E0.07016
G1 X110.734 Y150.094 E0.07016
G1 X108.530 Y149.711 E0.07016
G1 X106.346 Y149.221 E0.07016
G1 X104.190 Y148.624 E0.07016
G1 X102.065 Y147.922 E0.07015
G1 X100.743 Y147.412 E0.04445
G1 X100.927 Y146.379 E0.03290
G1 X102.822 Y146.352 E0.05941
G1 X104.287 Y146.258 E0.04604
G1 X105.746 Y146.092 E0.04603
G1 X107.195 Y145.856 E0.04604
G1 X108.630 Y145.548 E0.04603
G1 X110.049 Y145.170 E0.04603
G1 X111.448 Y144.724 E0.04603
G1 X112.823 Y144.209 E0.04603
G1 X114.171 Y143.627 E0.04603
G1 X115.489 Y142.980 E0.04603
G1 X116.773 Y142.269 E0.04604
G1 X118.021 Y141.495 E0.04603
G1 X119.230 Y140.662 E0.04604
G1 X120.396 Y139.770 E0.04603
G1 X121.517 Y138.822 E0.04604
G1 X122.590 Y137.820 E0.04603
G1 X123.613 Y136.767 E0.04604
G1 X124.583 Y135.664 E0.04604
G1 X125.497 Y134.516 E0.04603
G1 X126.355 Y133.324 E0.04603
G1 X127.152 Y132.091 E0.04604
G1 X127.888 Y130.821 E0.04603
G1 X128.561 Y129.516 E0.04603
G1 X129.169 Y128.180 E0.04603
G1 X129.711 Y126.815 E0.04603
G1 X130.185 Y125.426 E0.04603
G1 X130.591 Y124.015 E0.04603
G1 X130.927 Y122.585 E0.04603
G1 X131.192 Y121.141 E0.04603
G1 X131.386 Y119.686 E0.04603
G1 X131.508 Y118.223 E0.04603
G1 X131.559 Y116.755 E0.04604
G1 X131.537 Y115.287 E0.04603
G1 X131.443 Y113.822 E0.04603
G1 X131.278 Y112.363 E0.04603
G1 X131.041 Y110.914 E0.04603
G1 X130.734 Y109.479 E0.04603
G1 X130.356 Y108.060 E0.04603
G1 X129.909 Y106.662 E0.04603
G1 X129.394 Y105.287 E0.04603
G1 X128.812 Y103.939 E0.04603
G1 X128.165 Y102.621 E0.04603
G1 X127.454 Y101.336 E0.04603
G1 X126.681 Y100.089 E0.04602
G1 X125.785 Y98.795 E0.04933
G1 X125.472 Y98.394 E0.01595
G1 X125.139 Y98.007 E0.01602
G1 X124.786 Y97.637 E0.01602
G1 X123.563 Y96.472 E0.05297
G1 F8640
G1 X125.574 Y96.542 E-0.46478
G1 X126.846 Y96.673 E-0.29522
G1 E-0.04000 F2100.00000
G1 Z0.800 F10800.000
G1 X124.519 Y96.862
G1 Z0.200
G1 E0.80000 F2100.00000
G1 F1200
G1 X125.545 Y96.918 E0.03219
G1 X126.849 Y97.053 E0.04111
G1 X128.145 Y97.252 E0.04110
G1 X129.429 Y97.514 E0.04111
G1 X130.699 Y97.838 E0.04110
G1 X131.952 Y98.225 E0.04110
G1 X133.184 Y98.673 E0.04111
G1 X134.393 Y99.180 E0.04110
G1 X135.575 Y99.747 E0.04111
G1 X136.728 Y100.370 E0.04111
G1 X137.850 Y101.050 E0.04110
G1 X138.936 Y101.784 E0.04110
G1 X139.985 Y102.570 E0.04111
G1 X140.994 Y103.406 E0.04111
G1 X141.961 Y104.292 E0.04110
G1 X142.884 Y105.223 E0.04111
G1 X143.760 Y106.199 E0.04111
G1 X144.586 Y107.216 E0.04111
G1 X145.362 Y108.273 E0.04111
G1 X146.085 Y109.367 E0.04111
G1 X146.754 Y110.494 E0.04111
G1 X147.366 Y111.654 E0.04111
G1 X147.921 Y112.842 E0.04110
G1 X148.416 Y114.055 E0.04111
G1 X148.852 Y115.292 E0.04111
G1 X149.226 Y116.548 E0.04111
G1 X149.539 Y117.821 E0.04110
G1 X149.788 Y119.108 E0.04110
G1 X149.974 Y120.406 E0.04111
G1 X150.096 Y121.711 E0.04110
G1 X150.154 Y123.021 E0.04110
G1 X150.148 Y124.332 E0.04111
G1 X150.077 Y125.641 E0.04111
G1 X149.942 Y126.945 E0.04110
G1 X149.743 Y128.241 E0.04111
G1 X149.481 Y129.526 E0.04110
G1 X149.156 Y130.796 E0.04111
G1 X148.758 Y132.079 E0.04212
G1 X148.322 Y133.281 E0.04008
G1 X147.814 Y134.489 E0.04110
G1 X147.248 Y135.672 E0.04110
G1 X146.624 Y136.825 E0.04111
G1 X145.945 Y137.946 E0.04111
G1 X145.211 Y139.033 E0.04111
G1 X144.425 Y140.082 E0.04111
G1 X143.588 Y141.091 E0.04110
G1 X142.703 Y142.058 E0.04110
G1 X141.772 Y142.980 E0.04111
G1 X141.403 Y143.311 E0.01552
G1 X140.666 Y143.778 E0.02737
G1 X138.735 Y144.872 E0.06957
G1 X136.753 Y145.869 E0.06958
G1 X134.724 Y146.769 E0.06958
G1 X132.654 Y147.567 E0.06958
G1 X130.600 Y148.246 E0.06784
G1 X128.409 Y148.855 E0.07131
G1 X126.243 Y149.341 E0.06958
G1 X124.111 Y149.711 E0.06784
G1 X121.855 Y149.992 E0.07131
G1 X119.642 Y150.156 E0.06958
G1 X117.423 Y150.210 E0.06958
G1 X115.205 Y150.156 E0.06958
G1 X112.992 Y149.992 E0.06958
G1 X110.790 Y149.721 E0.06958
G1 X108.603 Y149.341 E0.06958
G1 X106.438 Y148.855 E0.06958
G1 X104.299 Y148.263 E0.06958
G1 X102.192 Y147.567 E0.06957
G1 X101.169 Y147.172 E0.03440
G1 X101.244 Y146.752 E0.01340
G1 X102.837 Y146.728 E0.04995
G1 X104.320 Y146.634 E0.04662
G1 X105.797 Y146.466 E0.04661
G1 X107.265 Y146.226 E0.04662
G1 X108.718 Y145.915 E0.04661
G1 X110.155 Y145.532 E0.04661
G1 X111.571 Y145.080 E0.04661
G1 X112.964 Y144.559 E0.04661
G1 X114.329 Y143.969 E0.04661
G1 X115.663 Y143.314 E0.04661
G1 X116.964 Y142.594 E0.04662
G1 X118.228 Y141.811 E0.04661
G1 X119.451 Y140.967 E0.04662
G1 X120.632 Y140.064 E0.04661
G1 X121.768 Y139.104 E0.04662
G1 X122.854 Y138.089 E0.04661
G1 X123.890 Y137.023 E0.04662
G1 X124.872 Y135.906 E0.04662
G1 X125.798 Y134.744 E0.04661
G1 X126.666 Y133.536 E0.04661
G1 X127.474 Y132.288 E0.04662
G1 X128.219 Y131.002 E0.04661
G1 X128.901 Y129.681 E0.04661
G1 X129.516 Y128.327 E0.04662
G1 X130.065 Y126.946 E0.04661
G1 X130.545 Y125.539 E0.04661
G1 X130.956 Y124.110 E0.04661
G1 X131.296 Y122.662 E0.04661
G1 X131.564 Y121.200 E0.04661
G1 X131.761 Y119.727 E0.04661
G1 X131.885 Y118.245 E0.04661
G1 X131.936 Y116.759 E0.04662
G1 X131.914 Y115.273 E0.04661
G1 X131.819 Y113.789 E0.04661
G1 X131.652 Y112.312 E0.04661
G1 X131.412 Y110.844 E0.04661
G1 X131.101 Y109.391 E0.04661
G1 X130.718 Y107.954 E0.04661
G1 X130.266 Y106.538 E0.04661
G1 X129.744 Y105.146 E0.04662
G1 X129.155 Y103.781 E0.04661
G1 X128.500 Y102.446 E0.04661
G1 X127.780 Y101.145 E0.04661
G1 X126.997 Y99.882 E0.04661
G1 X126.089 Y98.572 E0.04997
G1 X125.764 Y98.155 E0.01658
G1 X125.418 Y97.754 E0.01660
G1 X125.053 Y97.370 E0.01661
G1 X124.563 Y96.904 E0.02121
G1 X124.429 Y96.473 F10800.000
G1 F8640
G1 X125.545 Y96.918 E-0.22673
G1 X126.849 Y97.053 E-0.30271
G1 X127.836 Y97.204 E-0.23056
G1 E-0.04000 F2100.00000
G1 Z0.800 F10800.000
G1 X121.733 Y100.026
G1 Z0.200
G1 E0.80000 F2100.00000
G1 F1200
G1 X122.082 Y100.342 E0.01474
G1 X122.516 Y100.821 E0.02027
G1 X122.901 Y101.340 E0.02027
G1 X123.233 Y101.895 E0.02027
G1 X123.510 Y102.479 E0.02027
G1 X123.727 Y103.088 E0.02027
G1 X123.884 Y103.715 E0.02027
G1 X123.979 Y104.354 E0.02027
G1 X124.011 Y105.000 E0.02027
G1 X123.979 Y105.646 E0.02027
G1 X123.884 Y106.285 E0.02027
G1 X123.727 Y106.912 E0.02027
G1 X123.510 Y107.521 E0.02027
G1 X123.233 Y108.105 E0.02027
G1 X122.901 Y108.660 E0.02027
G1 X122.516 Y109.179 E0.02027
G1 X122.082 Y109.658 E0.02027
G1 X121.603 Y110.092 E0.02027
G1 X121.083 Y110.478 E0.02027
G1 X120.529 Y110.810 E0.02027
G1 X119.944 Y111.086 E0.02027
G1 X119.336 Y111.304 E0.02027
G1 X118.708 Y111.461 E0.02027
G1 X118.069 Y111.556 E0.02027
G1 X117.423 Y111.588 E0.02027
G1 X116.778 Y111.556 E0.02027
G1 X116.138 Y111.461 E0.02027
G1 X115.511 Y111.304 E0.02027
G1 X114.902 Y111.086 E0.02027
G1 X114.318 Y110.810 E0.02027
G1 X113.763 Y110.478 E0.02027
G1 X113.244 Y110.092 E0.02027
G1 X112.765 Y109.658 E0.02027
G1 X112.331 Y109.179 E0.02027
G1 X111.946 Y108.660 E0.02027
G1 X111.613 Y108.105 E0.02027
G1 X111.337 Y107.521 E0.02027
G1 X111.119 Y106.912 E0.02027
G1 X110.962 Y106.285 E0.02027
G1 X110.867 Y105.646 E0.02027
G1 X110.835 Y105.000 E0.02027
G1 X110.867 Y104.354 E0.02027
G1 X110.962 Y103.715 E0.02027
G1 X111.119 Y103.088 E0.02027
G1 X111.337 Y102.479 E0.02027
G1 X111.613 Y101.895 E0.02027
G1 X111.946 Y101.340 E0.02027
G1 X112.331 Y100.821 E0.02027
G1 X112.765 Y100.342 E0.02027
G1 X113.244 Y99.908 E0.02027
G1 X113.763 Y99.522 E0.02027
G1 X114.318 Y99.190 E0.02027
G1 X114.902 Y98.914 E0.02027
G1 X115.511 Y98.696 E0.02027
G1 X116.138 Y98.539 E0.02027
G1 X116.777 Y98.444 E0.02027
G1 X117.416 Y98.412 E0.02003
G1 X118.069 Y98.444 E0.02050
G1 X118.708 Y98.539 E0.02028
G1 X119.336 Y98.696 E0.02027
G1 X119.944 Y98.914 E0.02027
G1 X120.529 Y99.190 E0.02027
G1 X121.083 Y99.522 E0.02027
G1 X121.689 Y99.986 E0.02390
G1 X121.435 Y100.265 F10800.000
G1 F1200
G1 X121.815 Y100.609 E0.01604
G1 X122.224 Y101.060 E0.01911
G1 X122.587 Y101.550 E0.01911
G1 X122.900 Y102.073 E0.01911
G1 X123.161 Y102.623 E0.01911
G1 X123.366 Y103.197 E0.01911
G1 X123.514 Y103.788 E0.01911
G1 X123.604 Y104.391 E0.01911
G1 X123.634 Y105.000 E0.01911
G1 X123.604 Y105.609 E0.01911
G1 X123.514 Y106.212 E0.01911
G1 X123.366 Y106.803 E0.01911
G1 X123.161 Y107.377 E0.01911
G1 X122.900 Y107.927 E0.01911
G1 X122.587 Y108.450 E0.01911
G1 X122.224 Y108.940 E0.01911
G1 X121.815 Y109.391 E0.01911
G1 X121.363 Y109.801 E0.01911
G1 X120.873 Y110.164 E0.01911
G1 X120.351 Y110.477 E0.01911
G1 X119.800 Y110.738 E0.01911
G1 X119.226 Y110.943 E0.01911
G1 X118.635 Y111.091 E0.01911
G1 X118.032 Y111.180 E0.01911
G1 X117.423 Y111.210 E0.01911
G1 X116.815 Y111.180 E0.01911
G1 X116.212 Y111.091 E0.01911
G1 X115.621 Y110.943 E0.01911
G1 X115.047 Y110.738 E0.01911
G1 X114.496 Y110.477 E0.01911
G1 X113.973 Y110.164 E0.01911
G1 X113.484 Y109.801 E0.01911
G1 X113.032 Y109.391 E0.01911
G1 X112.623 Y108.940 E0.01911
G1 X112.260 Y108.450 E0.01911
G1 X111.946 Y107.927 E0.01911
G1 X111.686 Y107.377 E0.01911
G1 X111.480 Y106.803 E0.01911
G1 X111.332 Y106.212 E0.01911
G1 X111.243 Y105.609 E0.01911
G1 X111.213 Y105.000 E0.01911
G1 X111.243 Y104.391 E0.01911
G1 X111.332 Y103.788 E0.01911
G1 X111.480 Y103.197 E0.01911
G1 X111.686 Y102.623 E0.01911
G1 X111.946 Y102.073 E0.01911
G1 X112.260 Y101.550 E0.01911
G1 X112.623 Y101.060 E0.01911
G1 X113.032 Y100.609 E0.01911
G1 X113.484 Y100.199 E0.01911
G1 X113.973 Y99.836 E0.01911
G1 X114.496 Y99.523 E0.01911
G1 X115.047 Y99.262 E0.01911
G1 X115.621 Y99.057 E0.01911
G1 X116.212 Y98.909 E0.01911
G1 X116.815 Y98.820 E0.01911
G1 X117.416 Y98.790 E0.01887
G1 X118.032 Y98.820 E0.01934
G1 X118.635 Y98.909 E0.01911
